Sources/FrostedUI/Resources/Icons.xcassets/fileLines24.imageset/file-lines-24.svg

<svg
  width="24"
  height="24"
  viewBox="0 0 24 24"
  fill="none"
  xmlns="http://www.w3.org/2000/svg"
  data-fui-icon="true"
>
  <path
    d="M13.3358 3.33579L13.8661 2.80546L13.8661 2.80545L13.3358 3.33579ZM18.6642 8.66421L18.1339 9.19454L18.1339 9.19455L18.6642 8.66421ZM7.78125 16.125C7.36704 16.125 7.03125 16.4608 7.03125 16.875C7.03125 17.2892 7.36704 17.625 7.78125 17.625V16.125ZM16.2188 17.625C16.633 17.625 16.9688 17.2892 16.9688 16.875C16.9688 16.4608 16.633 16.125 16.2188 16.125V17.625ZM7.78125 12.0156C7.36704 12.0156 7.03125 12.3514 7.03125 12.7656C7.03125 13.1798 7.36704 13.5156 7.78125 13.5156V12.0156ZM12.2344 13.5156C12.6486 13.5156 12.9844 13.1798 12.9844 12.7656C12.9844 12.3514 12.6486 12.0156 12.2344 12.0156V13.5156ZM12 3.25V7.25H13.5V3.25H12ZM12 7.25C12 8.76878 13.2312 10 14.75 10V8.5C14.0596 8.5 13.5 7.94036 13.5 7.25H12ZM14.75 10H18.75V8.5H14.75V10ZM6.75 3.5H11.9216V2H6.75V3.5ZM11.9216 3.5C12.2531 3.5 12.571 3.63168 12.8055 3.86613L13.8661 2.80545C13.3504 2.28974 12.6509 2 11.9216 2V3.5ZM12.8055 3.86612L18.1339 9.19454L19.1945 8.13388L13.8661 2.80546L12.8055 3.86612ZM18.1339 9.19455C18.3683 9.42898 18.5 9.7469 18.5 10.0784H20C20 9.34908 19.7103 8.64961 19.1945 8.13387L18.1339 9.19455ZM18.5 10.0784V19.25H20V10.0784H18.5ZM18.5 19.25C18.5 19.9404 17.9404 20.5 17.25 20.5V22C18.7688 22 20 20.7688 20 19.25H18.5ZM17.25 20.5H6.75V22H17.25V20.5ZM6.75 20.5C6.05964 20.5 5.5 19.9404 5.5 19.25H4C4 20.7688 5.23122 22 6.75 22V20.5ZM5.5 19.25V4.75H4V19.25H5.5ZM5.5 4.75C5.5 4.05964 6.05964 3.5 6.75 3.5V2C5.23122 2 4 3.23122 4 4.75H5.5ZM7.78125 17.625H16.2188V16.125H7.78125V17.625ZM7.78125 13.5156H12.2344V12.0156H7.78125V13.5156Z"
    fill="currentColor"
  />
</svg>

<svg xmlns="http://www.w3.org/2000/svg" width="24" height="24" fill="none" data-fui-icon="true" viewBox="0 0 24 24"><path fill="currentColor" d="m13.336 3.336.53-.53zm5.328 5.328-.53.53zM7.781 16.125a.75.75 0 0 0 0 1.5zm8.438 1.5a.75.75 0 0 0 0-1.5zm-8.438-5.61a.75.75 0 0 0 0 1.5zm4.453 1.5a.75.75 0 0 0 0-1.5zM12 3.25v4h1.5v-4zm0 4A2.75 2.75 0 0 0 14.75 10V8.5c-.69 0-1.25-.56-1.25-1.25zM14.75 10h4V8.5h-4zm-8-6.5h5.172V2H6.75zm5.172 0c.331 0 .649.132.883.366l1.061-1.06A2.75 2.75 0 0 0 11.922 2zm.883.366 5.329 5.329 1.06-1.061-5.328-5.329zm5.329 5.329c.234.234.366.552.366.883H20c0-.729-.29-1.428-.805-1.944zm.366.883v9.172H20v-9.172zm0 9.172c0 .69-.56 1.25-1.25 1.25V22A2.75 2.75 0 0 0 20 19.25zm-1.25 1.25H6.75V22h10.5zm-10.5 0c-.69 0-1.25-.56-1.25-1.25H4A2.75 2.75 0 0 0 6.75 22zM5.5 19.25V4.75H4v14.5zm0-14.5c0-.69.56-1.25 1.25-1.25V2A2.75 2.75 0 0 0 4 4.75zm2.281 12.875h8.438v-1.5H7.78zm0-4.11h4.453v-1.5H7.781z"/></svg>
